X: 59
T:The Chickadee's Polka
% Nottingham Music Database
S:Bob McQuillen Oct 1975, via PR
M:4/4
L:1/4
K:G
G/2A/2|"G"BG DG/2A/2|BG DG/2A/2|"G"BG EG|"C"E2 "G"D2|"C"CE E3/2C/2|
"G"B,D GB|"A7"BA EB|"D7"B2 AG/2A/2|"G"BG DG/2A/2|BG DG/2A/2|
"G"BG EG|"C"E2 "G"D2|"C"EG ce|"G"ed Bd/2c/2|"A7"BA "D7"GF|"G"G3d/2c/2||
"G"BB Bd/2c/2|BB Bd/2c/2|"G"Bd ga|b2 g2|"Am"a3/2b/2 "G"ag|"C"e3/2g/2 "G"dB|
"C"ed "G"cB|"D7"A3d/2c/2|"G"BB Bd/2c/2|BB Bd/2c/2|"G"Bd ga|
b2 g2|"D"a/2b/2a/2g/2 fe/2f/2|"G"g/2a/2g/2e/2 dB/2d/2|"C"eg "D7"fa|"G"g3||<end>
<start>
